X: 3022
T: MISS ELPHENSTONE
Q:"Reel."
R: Reel.
%R:reel
B: James Kerr "Merry Melodies" v.3 p.5 #22
Z: 2016 John Chambers <jc:trillian.mit.edu>
M: C
L: 1/8
K: D
f |\
d2dA F2dA | e2ed (ce)ea |\
fded d2(AG) | Fdea fdd :|\
f |\
afdf bagf | gagf efgb |
afdf a2(gf) | gbag fddf |\
afdf bagf | gagf efga |\
gfed c2(BA) | Bdea fdd |]

%%sep 1 1 500
%%sep 1 1 500

